src/assets/hangboards/METOLIUSCOMPACT.svg

<svg height="165" viewBox="0 0 352 165" width="352" xmlns="http://www.w3.org/2000/svg"><g fill="#fff" fill-rule="evenodd" stroke="#000" transform="translate(.757682 .855469)"><path d="m351.242318 163.066406h-260.3691405c-4.0279948 0-8.5169271-.498047-13.4667969-1.49414-4.9498698-.996094-18.0589193-3.905111-39.3271484-8.727051-5.7945964-1.356445-9.1529948-4.361166-10.0751953-9.01416-.9222006-4.652995-10.019043-43.26237-27.29052738-115.8281253-1.26757812-7.8336589-.30175781-13.8520508 2.89746094-18.05517579 4.79882812-6.3046875 9.22558594-7.98339844 17.56298824-7.98339844 8.3374024 0 14.8403321 5.13232422 22.6347657 6.03173828 5.196289.59960937 23.4866536 1.25016276 54.8710937 1.95166016 58.1367189 2.20800779 93.2472329-1.10791016 105.3315429-9.94775391h147.230957"/><rect height="38" rx="19" width="106" x="217.242318" y="109.144531"/><rect height="38" rx="19" width="80" x="125.242318" y="109.144531"/><path d="m43.7526327 105.552723 10.7900977 1.895519 15.6863904.683171c9.4971691.41362 16.9839004 8.233509 16.9839004 17.739681 0 8.979717-7.2794992 16.259216-16.2592166 16.259216-.241398 0-.4827661-.005376-.7239247-.016124l-15.6871495-.699147-11.5635496-3.107483c-7.9517495-2.136882-13.6221816-9.152364-14.0440957-17.375415l-.1117123-2.177258c-.3605801-7.027659 5.0441552-13.01701 12.0718142-13.37759.9560477-.049054 1.9145785.009794 2.8574457.17543z"/><rect height="25" rx="12.5" width="113" x="146.242318" y="69.144531"/><rect height="25" rx="12.5" width="49" x="87.242318" y="69.144531"/><path d="m351.242318.14453125h-146.995361l-3.004639 37.18359375h150"/><path d="m201.242318 37.328125c-48.191152 4.0755208-80.767899 5.65625-97.73024 4.7421875-25.4435117-1.3710937-106.42994645.3957076-103.33813442-20.8373024 2.06120802-14.15534008 10.45151252-20.52109604 25.17091362-19.09726791 10.2425212 5.06575521 22.856128 7.59863281 37.8408203 7.59863281 14.8014934 0 65.3771575 2.090477 102.0566405 0 19.020717-1.08404943 34.018108-5.54639518 39.004639-9.58984375 0 0-1.001546 12.39453125-3.004639 37.18359375z"/></g></svg>

<?xml version="1.0" encoding="UTF-8"?>
<svg width="352px" height="165px" viewBox="0 0 352 165" version="1.1" xmlns="http://www.w3.org/2000/svg" xmlns:xlink="http://www.w3.org/1999/xlink">
    <!-- Generator: Sketch 63.1 (92452) - https://sketch.com -->
    <title>METOLIUSCOMPACT</title>
    <desc>Created with Sketch.</desc>
    <g id="Page-1" stroke="none" stroke-width="1" fill="none" fill-rule="evenodd">
        <g id="METOLIUSCOMPACT" transform="translate(0.757682, 0.855469)" fill="#FFFFFF" stroke="#000000">
            <path d="M351.242318,163.066406 L90.8731775,163.066406 C86.8451827,163.066406 82.3562504,162.568359 77.4063806,161.572266 C72.4565108,160.576172 59.3474613,157.667155 38.0792322,152.845215 C32.2846358,151.48877 28.9262374,148.484049 28.0040369,143.831055 C27.0818363,139.17806 17.9849939,100.568685 0.713509522,28.0029297 C-0.554068603,20.1692708 0.411751709,14.1508789 3.61097046,9.94775391 C8.40979858,3.64306641 12.8365564,1.96435547 21.1739587,1.96435547 C29.5113611,1.96435547 36.0142908,7.09667969 43.8087244,7.99609375 C49.0050134,8.59570312 67.295378,9.24625651 98.6798181,9.94775391 C156.816537,12.1557617 191.927051,8.83984375 204.011361,0 C204.011361,0 253.088347,0 351.242318,0" id="hangboard"></path>
            <rect id="h7" x="217.242318" y="109.144531" width="106" height="38" rx="19"></rect>
            <rect id="h6" x="125.242318" y="109.144531" width="80" height="38" rx="19"></rect>
            <path d="M43.7526327,105.552723 L54.5427304,107.448242 L54.5427304,107.448242 L70.2291208,108.131413 C79.7262899,108.545033 87.2130212,116.364922 87.2130212,125.871094 C87.2130212,134.850811 79.933522,142.13031 70.9538046,142.13031 C70.7124066,142.13031 70.4710385,142.124934 70.2298799,142.114186 L54.5427304,141.415039 L54.5427304,141.415039 L42.9791808,138.307556 C35.0274313,136.170674 29.3569992,129.155192 28.9350851,120.932141 L28.8233728,118.754883 C28.4627927,111.727224 33.867528,105.737873 40.895187,105.377293 C41.8512347,105.328239 42.8097655,105.387087 43.7526327,105.552723 Z" id="h5"></path>
            <rect id="h4" x="146.242318" y="69.1445312" width="113" height="25" rx="12.5"></rect>
            <rect id="h3" x="87.2423181" y="69.1445312" width="49" height="25" rx="12.5"></rect>
            <polyline id="h2" points="351.242318 0.14453125 204.246957 0.14453125 201.242318 37.328125 351.242318 37.328125"></polyline>
            <path d="M201.242318,37.328125 C153.051166,41.4036458 120.474419,42.984375 103.512078,42.0703125 C78.0685663,40.6992188 -2.91786845,42.4660201 0.173943582,21.2330101 C2.2351516,7.07767002 10.6254561,0.711914063 25.3448572,2.13574219 C35.5873784,7.2014974 48.2009852,9.734375 63.1856775,9.734375 C77.9871709,9.734375 128.562835,11.824852 165.242318,9.734375 C184.263035,8.65032557 199.260426,4.18797982 204.246957,0.14453125 C204.246957,0.14453125 203.245411,12.5390625 201.242318,37.328125 Z" id="h1"></path>
        </g>
    </g>
</svg>
